_inc/images/systems/logos/amcoe.svg

<svg data-name="Warstwa 1" viewBox="0 0 264 74" xmlns="http://www.w3.org/2000/svg">
    <path d="m39.22 1.394-5.04.865 27.498 66.556c.86-1.293 2.333-2.486 2.26-3.579-.577-9.416-1.601-18.807-2.132-28.233-.098-4.2.128-8.402.677-12.568.064-.628 1.509-1.566 2.342-1.593 10.062-.383 20.198-.647 30.297-.847a3.712 3.712 0 0 1 2.306 1.111c3.348 3.232 7.144 3.379 10.364.281 4.574-4.416 14.765-2.576 17.152 3.307.522 1.293-.476 3.133-.485 4.718-.045 11.484-.091 22.968.055 34.453 0 1.329 1.189 2.641 2.022 4.381-2.315.819-4.766 2.021-7.318 2.523-4.849.91-8.288-2.15-8.325-7.132-.073-8.451 0-16.913-.192-25.364a44.43 44.43 0 0 0-1.025-6.311c-.795-.092-1.527-.246-2.259-.264-6.961-.138-7.044.054-7.108 6.958-.082 8.397-.421 16.793-.457 25.19 0 1.504.915 2.997 1.537 4.846-2.425.301-4.904.656-7.392.911-4.729.492-6.037-.702-6.056-5.465 0-7.468.046-14.936-.091-22.395-.055-2.678.073-5.719-1.162-7.878-.86-1.512-3.833-2.305-5.946-2.477-1.198-.1-3.531 1.593-3.659 2.677-.64 5.347-.778 10.757-.915 16.148-.146 4.672 0 9.353-.164 14.035.126 3.187-2.671 5.715-5.846 5.281-6.961-.91-13.621-1.274-20.125 1.986-.512.255-2.168-.765-2.616-1.567a62.166 62.166 0 0 1-4.071-8.469c-1.079-2.851-1.637-5.893-2.58-8.798-.942-2.905-2.46-5.182-6.11-5.465-2.937-.236-5.782-1.676-8.7-1.775-8.288-.283-10.52 1.821-12.212 9.872a27.843 27.843 0 0 1-3.156 7.422c-1.263 2.305-.394 4.272 2.351 4.646a2.99 2.99 0 0 1 2.195 1.447c-3.659.365-7.318.984-10.977 1.039C.269 71.93-.801 69.317.69 65.71c2.205-5.31 3.659-10.929 5.9-16.229 1.83-4.481 4.336-8.717 6.459-13.088.317-.947.568-1.915.75-2.896 1.546-4.79 2.89-9.673 4.766-14.335 1.564-3.889 3.302-7.377 1.829-11.885-1.71-5.319-.201-7.04 5.343-7.213 4.464-.146 8.946 0 13.419 0ZM20.833 37.686c4.108.566 7.319 1.185 10.557 1.303.805 0 2.525-1.776 2.369-2.386-1.326-5.338-2.982-10.592-4.574-15.875l-2.305.046Zm196.293 12.715c.375 7.185-3.924 11.084-9.578 14.253-1.921 1.074-3.238 3.178-5.104 4.407-7.318 4.828-22.421 2.213-27.809-4.735a7.494 7.494 0 0 1-1.647-3.297c-.567-4.162-.594-8.406-1.363-12.523-1.207-6.503 1.967-11.448 5.727-15.847 4.976-5.829 11.755-8.989 19.347-10.309.275-.055.586-.419.787-.355 4.867 1.62 9.87 2.95 14.545 5.026 4.876 2.159 5.745 6.795 5.717 11.631 0 1.302.119 2.595.183 3.898l1.299.245c.421-2.249.915-4.48 1.226-6.748.595-4.966 4.433-8.932 9.395-9.709 1.747-.272 3.878-.911 4.949-2.176 3.659-4.181 8.342-3.052 12.807-3.115 5.58-.082 9.696 3.644 12.87 7.067 2.571 2.732 3.541 7.851 3.568 11.913 0 3.361-3.321 5.464-7.135 5.583a1.71 1.71 0 0 0-1.208.564c-4.976 6.968-12.605 3.461-20.363 5.228 3.202 2.55 5.553 5.738 8.499 6.43 3.732.911 7.931-.409 11.937-.51 2.47-.064 6.523-.465 7.117.692 1.373 2.641 1.107 5.656-3.183 7.195-3.147 1.129-5.58 4.207-8.334 6.375-4.93 3.943-10.611 1.903-15.99 1.767-2.058-.055-4.153-1.275-6.111-2.213-8.681-4.135-10.52-12.186-12.148-20.737Zm-23.043 10.017c5.296 1.494 6.824-1.93 7.675-6.62 1.235-6.831 1.756-13.015-4.757-18.024-3.293-2.532-6.458-1.384-9.596-1.138-.713.054-1.473 3.807-1.619 5.901a54.605 54.605 0 0 0 .055 11.339c.247 1.821 1.921 3.643 3.339 5.091 1.418 1.448 3.247 2.358 4.903 3.488Zm42.171-21.757h11.892l-4.912-5.729-7.227 2.341Zm-65.882 18.242c1.912 8.425-17.454 17.75-28.916 13.661-3.266-1.174-6.065-3.642-8.627-5.218-.439-3.316-.914-6.476-1.271-9.636-1.107-9.435-2.433-18.88 5.864-26.302 6.055-5.419 24.104-6.649 30.343-1.767.439.346.302 1.821 0 2.586-1.921 5.465-7.428 5.957-11.801 7.779-.851.354-2.671-1.822-4.153-2.733-2.113-1.202-5.049-3.643-6.312-3.006-1.829.911-3.403 4.108-3.531 6.376a64.419 64.419 0 0 0 1.134 13.342c.156 1.011 1.903 1.822 3.001 2.595.311.228 1.143-.054 1.299.182 5.36 8.152 12.395 3.853 19.018 2.569 1.034-.2 2.04-.519 3.074-.72.283-.018.594.201.878.292Z" fill="#fff"/>
</svg>

<?xml version="1.0" encoding="utf-8"?>
<svg id="Warstwa_1" data-name="Warstwa 1" viewBox="0 0 264 74" xmlns="http://www.w3.org/2000/svg">
  <title>amcoe</title>
  <path d="M 39.22 1.394 L 34.18 2.259 L 61.678 68.815 C 62.538 67.522 64.011 66.329 63.938 65.236 C 63.361 55.82 62.337 46.429 61.806 37.003 C 61.708 32.803 61.934 28.601 62.483 24.435 C 62.547 23.807 63.992 22.869 64.825 22.842 C 74.887 22.459 85.023 22.195 95.122 21.995 C 95.999 22.081 96.816 22.474 97.428 23.106 C 100.776 26.338 104.572 26.485 107.792 23.387 C 112.366 18.971 122.557 20.811 124.944 26.694 C 125.466 27.987 124.468 29.827 124.459 31.412 C 124.414 42.896 124.368 54.38 124.514 65.865 C 124.514 67.194 125.703 68.506 126.536 70.246 C 124.221 71.065 121.77 72.267 119.218 72.769 C 114.369 73.679 110.93 70.619 110.893 65.637 C 110.82 57.186 110.893 48.724 110.701 40.273 C 110.511 38.147 110.169 36.038 109.676 33.962 C 108.881 33.87 108.149 33.716 107.417 33.698 C 100.456 33.56 100.373 33.752 100.309 40.656 C 100.227 49.053 99.888 57.449 99.852 65.846 C 99.852 67.35 100.767 68.843 101.389 70.692 C 98.964 70.993 96.485 71.348 93.997 71.603 C 89.268 72.095 87.96 70.901 87.941 66.138 C 87.941 58.67 87.987 51.202 87.85 43.743 C 87.795 41.065 87.923 38.024 86.688 35.865 C 85.828 34.353 82.855 33.56 80.742 33.388 C 79.544 33.288 77.211 34.981 77.083 36.065 C 76.443 41.412 76.305 46.822 76.168 52.213 C 76.022 56.885 76.168 61.566 76.004 66.248 C 76.13 69.435 73.333 71.963 70.158 71.529 C 63.197 70.619 56.537 70.255 50.033 73.515 C 49.521 73.77 47.865 72.75 47.417 71.948 C 45.848 69.231 44.487 66.4 43.346 63.479 C 42.267 60.628 41.709 57.586 40.766 54.681 C 39.824 51.776 38.306 49.499 34.656 49.216 C 31.719 48.98 28.874 47.54 25.956 47.441 C 17.668 47.158 15.436 49.262 13.744 57.313 C 13.058 59.927 11.995 62.426 10.588 64.735 C 9.325 67.04 10.194 69.007 12.939 69.381 C 13.856 69.499 14.667 70.034 15.134 70.828 C 11.475 71.193 7.816 71.812 4.157 71.867 C 0.269 71.93 -0.801 69.317 0.69 65.71 C 2.895 60.4 4.349 54.781 6.59 49.481 C 8.42 45 10.926 40.764 13.049 36.393 C 13.366 35.446 13.617 34.478 13.799 33.497 C 15.345 28.707 16.689 23.824 18.565 19.162 C 20.129 15.273 21.867 11.785 20.394 7.277 C 18.684 1.958 20.193 0.237 25.737 0.064 C 30.201 -0.082 34.683 0.064 39.156 0.064 Z M 20.833 37.686 C 24.941 38.252 28.152 38.871 31.39 38.989 C 32.195 38.989 33.915 37.213 33.759 36.603 C 32.433 31.265 30.777 26.011 29.185 20.728 L 26.88 20.774 Z" fill="white"/>
  <path d="M 217.126 50.401 C 217.501 57.586 213.202 61.485 207.548 64.654 C 205.627 65.728 204.31 67.832 202.444 69.061 C 195.126 73.889 180.023 71.274 174.635 64.326 C 173.819 63.38 173.254 62.247 172.988 61.029 C 172.421 56.867 172.394 52.623 171.625 48.506 C 170.418 42.003 173.592 37.058 177.352 32.659 C 182.328 26.83 189.107 23.67 196.699 22.35 C 196.974 22.295 197.285 21.931 197.486 21.995 C 202.353 23.615 207.356 24.945 212.031 27.021 C 216.907 29.18 217.776 33.816 217.748 38.652 C 217.748 39.954 217.867 41.247 217.931 42.55 L 219.23 42.795 C 219.651 40.546 220.145 38.315 220.456 36.047 C 221.051 31.081 224.889 27.115 229.851 26.338 C 231.598 26.066 233.729 25.427 234.8 24.162 C 238.459 19.981 243.142 21.11 247.607 21.047 C 253.187 20.965 257.303 24.691 260.477 28.114 C 263.048 30.846 264.018 35.965 264.045 40.027 C 264.045 43.388 260.724 45.491 256.91 45.61 C 256.447 45.627 256.011 45.831 255.702 46.174 C 250.726 53.142 243.097 49.635 235.339 51.402 C 238.541 53.952 240.892 57.14 243.838 57.832 C 247.57 58.743 251.769 57.423 255.775 57.322 C 258.245 57.258 262.298 56.857 262.892 58.014 C 264.265 60.655 263.999 63.67 259.709 65.209 C 256.562 66.338 254.129 69.416 251.375 71.584 C 246.445 75.527 240.764 73.487 235.385 73.351 C 233.327 73.296 231.232 72.076 229.274 71.138 C 220.593 67.003 218.754 58.952 217.126 50.401 Z M 194.083 60.418 C 199.379 61.912 200.907 58.488 201.758 53.798 C 202.993 46.967 203.514 40.783 197.001 35.774 C 193.708 33.242 190.543 34.39 187.405 34.636 C 186.692 34.69 185.932 38.443 185.786 40.537 C 185.411 44.309 185.429 48.108 185.841 51.876 C 186.088 53.697 187.762 55.519 189.18 56.967 C 190.598 58.415 192.427 59.325 194.083 60.455 Z M 236.254 38.661 L 248.146 38.661 L 243.234 32.932 L 236.007 35.273 Z" fill="white"/>
  <path d="M 170.372 56.903 C 172.284 65.328 152.918 74.653 141.456 70.564 C 138.19 69.39 135.391 66.922 132.829 65.346 C 132.39 62.03 131.915 58.87 131.558 55.71 C 130.451 46.275 129.125 36.83 137.422 29.408 C 143.477 23.989 161.526 22.759 167.765 27.641 C 168.204 27.987 168.067 29.462 167.765 30.227 C 165.844 35.692 160.337 36.184 155.964 38.006 C 155.113 38.36 153.293 36.184 151.811 35.273 C 149.698 34.071 146.762 31.63 145.499 32.267 C 143.67 33.178 142.096 36.375 141.968 38.643 C 141.881 43.117 142.262 47.589 143.102 51.985 C 143.258 52.996 145.005 53.807 146.103 54.58 C 146.414 54.808 147.246 54.526 147.402 54.762 C 152.762 62.914 159.797 58.615 166.42 57.331 C 167.454 57.131 168.46 56.812 169.494 56.611 C 169.777 56.593 170.088 56.812 170.372 56.903 Z" fill="white"/>
</svg>
